X:1
T:There’s No Friend Like Jesus
T:M. J. Babbitt, circa 1917
T:There’s No Friend Like Jesus
T:Public Domain
T:Public Domain
C:M. J. Babbitt, circa 1917
Z:Public Domain
%%score ( 1 2 ) ( 3 4 )
L:1/8
M:4/4
K:Eb
V:1 treble 
V:2 treble 
V:3 bass 
V:4 bass 
V:1
 G3 G AGFE | E4 D4 | A3 A AAAA | G6 z2 | G3 G AGFE | F4 A4 | G3 E GFDB, | E6 z2 || %8
w: 1.~There’s no friend to me like|Je- sus,|He my ev- ’ry need sup-|plies;|He not on- ly saves but|keeps me,|No- thing good from me de-|nies.|
w: 2.~All, yes, all to me is|Je- sus,|Blest Re- deem- er, Sav- ior,|guide,|And from ev- ’ry foe de-|fends me,|And in Him I’ll ev- er|hide.|
w: 3.~I will nev- er cease to|love Him,|He Who died to set me|free;|Now in Him I am a-|bid- ing,|And some day His face I’ll|see.|
"^Refrain" [GB]3 [^F=A] [_Ac][GB][D=F][EG] | [DA]2 [DA]4 z2 | [DA]3 [DF] [DB][DA][DF][D^F] | %11
w: |||
w: Yes, in Him I’m ful- ly|trust- ing,|Yes, through Him I’ll con- quer|
w: |||
 [EG]6 z2 | [EG]3 [EG] [EA][EG]F[B,E] | [CF]4 [FA]4 | [EG]3 E [EG][DF][B,D]B, | [B,E]6 z2 |] %16
w: |||||
w: all;|For I know He saves and|me, And|He’ll nev- er let me fall.||
w: |||||
V:2
 x8 | x8 | x8 | x8 | x8 | x8 | x8 | x8 || x8 | x8 | x8 | x8 | x6 F x | x8 | x3 E x2 B, x | x8 |] %16
w: ||||||||||||||||
w: ||||||||||||keeps||||
V:3
 B,3 B, CB,A,G, | [B,,G,]4 [B,,,B,,A,]4 | B,3 C DFDC | [E,,B,,B,]6 z2 | B,3 B, CB,A,G, | %5
 [A,,-E,-C]4 [A,,E,C]4 | B,3 G, B,A,A,A, | [E,,B,,G,]6 z2 || [E,E]3 [E,E] [E,E][E,E][A,B,][G,B,] | %9
 [F,B,]2 [F,B,]4 z2 | [B,,B,]3 [B,,B,] [B,,F,][B,,B,][B,,B,][B,,B,] | [E,B,]6 z2 | %12
 [E,B,]3 [E,B,] [E,C][E,B,][E,A,][E,G,] | [A,,A,]4 [A,,C]4 | %14
 [B,,B,]3 [B,,G,] [B,,B,][B,,A,][B,,F,][B,,A,] | [E,G,]6 z2 |] %16
V:4
 [E,,E,]6 x2 | x8 | [B,,,B,,]6 [B,,,B,,]2 | x8 | [E,,E,]4 E,4 | x8 | [B,,E,]4 B,,2 [B,,,B,,]2 | %7
 x8 || x8 | x8 | x8 | x8 | x8 | x8 | x8 | x8 |] %16

